svg/u2716.svg

<svg viewBox="0 0 128 128" xmlns="http://www.w3.org/2000/svg">
  <path d="M6.74,23.96c0,0-3.68,3.4-4.03,4.43c-0.24,0.72,0.89,1.75,1.91,2.76s37.15,37.6,37.15,37.6 s23.41-13.28,11.71-18.24S6.74,23.96,6.74,23.96z" fill="#464C4F"/>
  <path d="M25.67,121.1c0,0,1.83,1.85,2.97,2.79c1.91,1.58,3.68-0.98,5.48-2.56 c1.8-1.58,30.73-30.12,30.73-30.12s29.27,29.44,30.74,30.68c1.46,1.24,3.27,0.72,4.06,0.05c0.79-0.68,5.18-5.08,5.18-5.08 l-32.2-35.83l-26.9,5.52L25.67,121.1z" fill="#464C4F"/>
  <path d="M80.04,54.12l4.05,16.44l4.28-4.84c0,0,34.22-34.45,35.23-35.35c1.01-0.9,1.51-2.46,0.72-3.47 s-1.65-1.85-1.65-1.85L80.04,54.12z" fill="#464C4F"/>
  <path d="M41.88,62c0,0.56-34.45,34.67-35.68,36.02s-1.13,2.59,0.34,4.28s18.55,18.24,19.14,18.8 c0.68,0.64,2.7-0.34,4.17-1.69c1.46-1.35,34.22-33.77,35.12-33.77s31.41,30.62,33.21,31.97c1.8,1.35,4.05,1.24,5.4,0.34 c1.35-0.9,15.76-15.2,16.77-16.32c1.01-1.13,0.11-2.7-1.58-4.62c-1.69-1.91-32.76-34.33-32.76-34.33l36.7-37.6 c0,0-18.24-17.45-19.36-18.46s-3.15-2.03-5.52,0.23S64.17,40.73,64.17,40.73S30.85,5.94,29.73,4.93s-2.59-0.56-3.83,0.45 C24.66,6.39,6.99,23.61,6.31,24.4s0.68,2.03,2.59,4.05S41.88,62,41.88,62z" fill="#616266"/>
  <path d="M27.28,11.24c-2.42-0.17-13.35,9.1-10.57,11.75c2.36,2.25,6.43-2.76,10.37-2.66 c3.94,0.1,8.99,2.83,10.71,0.4C39.89,17.76,30.21,11.44,27.28,11.24z" fill="#9A9A9A"/>
  <path d="M101.28,12.45c-3.54,0.54-8.78,5.7-13.51,10.51c-4.73,4.81-8.05,8.82-6.68,10.56 c1.76,2.23,7.05-3.69,10.34-6.57c3.28-2.88,8.23-6.55,11.68-6.68c3.52-0.13,6.98,1.39,7.71-0.45 C111.53,17.98,106.06,11.72,101.28,12.45z" fill="#9A9A9A"/>
  <path d="M27.81,85.36c-1.17-0.99-5.69,0.64-10.5,6.97s-3.35,9.31-1.52,11.62c2.16,2.72,4.44,4.34,5.77,2 c0.96-1.68,0.24-4.97,1.52-8.57c1.28-3.61,3.77-7.61,4.49-8.81S28.85,86.24,27.81,85.36z" fill="#9A9A9A"/>
</svg>

<svg viewBox="0 0 128 128" xmlns="http://www.w3.org/2000/svg">
  <defs/>
  <path d="M6.74,23.96 C6.74,23.96 3.06,27.36 2.71,28.39 C2.47,29.11 3.6,30.14 4.62,31.15 C5.64,32.16 41.77,68.75 41.77,68.75 C41.77,68.75 65.18,55.47 53.48,50.51 C41.78,45.55 6.74,23.96 6.74,23.96 Z" fill="#464C4F"/>
  <path d="M25.67,121.1 C25.67,121.1 27.5,122.95 28.64,123.89 C30.55,125.47 32.32,122.91 34.12,121.33 C35.92,119.75 64.85,91.21 64.85,91.21 C64.85,91.21 94.12,120.65 95.59,121.89 C97.05,123.13 98.86,122.61 99.65,121.94 C100.44,121.26 104.83,116.86 104.83,116.86 L72.63,81.03 L45.73,86.55 L25.67,121.1 Z" fill="#464C4F"/>
  <path d="M80.04,54.12 L84.09,70.56 L88.37,65.72 C88.37,65.72 122.59,31.27 123.6,30.37 C124.61,29.47 125.11,27.91 124.32,26.9 C123.53,25.89 122.67,25.05 122.67,25.05 L80.04,54.12 Z" fill="#464C4F"/>
  <path d="M41.88,62 C41.88,62.56 7.43,96.67 6.2,98.02 C4.97,99.37 5.07,100.61 6.54,102.3 C8.01,103.99 25.09,120.54 25.68,121.1 C26.36,121.74 28.38,120.76 29.85,119.41 C31.31,118.06 64.07,85.64 64.97,85.64 C65.87,85.64 96.38,116.26 98.18,117.61 C99.98,118.96 102.23,118.85 103.58,117.95 C104.93,117.05 119.34,102.75 120.35,101.63 C121.36,100.5 120.46,98.93 118.77,97.01 C117.08,95.1 86.01,62.68 86.01,62.68 L122.71,25.08 C122.71,25.08 104.47,7.63 103.35,6.62 C102.23,5.61 100.2,4.59 97.83,6.85 C95.46,9.11 64.17,40.73 64.17,40.73 C64.17,40.73 30.85,5.94 29.73,4.93 C28.61,3.92 27.14,4.37 25.9,5.38 C24.66,6.39 6.99,23.61 6.31,24.4 C5.63,25.19 6.99,26.43 8.9,28.45 C10.81,30.47 41.88,62 41.88,62 Z" fill="#616266"/>
  <path d="M27.28,11.24 C24.86,11.07 13.93,20.34 16.71,22.99 C19.07,25.24 23.14,20.23 27.08,20.33 C31.02,20.43 36.07,23.16 37.79,20.73 C39.89,17.76 30.21,11.44 27.28,11.24 Z" fill="#9A9A9A"/>
  <path d="M101.28,12.45 C97.74,12.99 92.5,18.15 87.77,22.96 C83.04,27.77 79.72,31.78 81.09,33.52 C82.85,35.75 88.14,29.83 91.43,26.95 C94.71,24.07 99.66,20.4 103.11,20.27 C106.63,20.14 110.09,21.66 110.82,19.82 C111.53,17.98 106.06,11.72 101.28,12.45 Z" fill="#9A9A9A"/>
  <path d="M27.81,85.36 C26.64,84.37 22.12,86 17.31,92.33 C12.5,98.66 13.96,101.64 15.79,103.95 C17.95,106.67 20.23,108.29 21.56,105.95 C22.52,104.27 21.8,100.98 23.08,97.38 C24.36,93.77 26.85,89.77 27.57,88.57 C28.29,87.37 28.85,86.24 27.81,85.36 Z" fill="#9A9A9A"/>
</svg>
